X:279
T: ES WAR EINMAL EIN MUELLERIN
N: E0156A
O: Europa, Mitteleuropa, Deutschland, Taunus; Elsass
R: erzaehlendes Volks - Lied, Scherz, Schwank
M: 2/4
L: 1/16
K: F
C2 | F3GA2B2 | c3dc2
A2 | B3AB2c2 | A4z2
FA | c2A2c2A2 | c2f2d2
c2 | B2G2B2G2 | B2d2c2
B2 | A3GA2B2 | c2f2e2
d2 | c3AB2c2 | A4z2

